public/static/images/projects/maximelbv/logo.svg

<svg width="194" height="201" viewBox="0 0 194 201" fill="none" xmlns="http://www.w3.org/2000/svg">
<path d="M76.0946 177.019C76.8696 178.361 78.4162 178.773 79.9576 178.227C109.731 177.019 114.152 173.126 136.136 193.225C137.123 194.578 138.772 194.934 140.115 194.16C141.457 193.386 141.92 191.811 141.294 190.25C136.136 160.987 136.136 158.112 156.384 134.137C157.628 133.076 157.991 131.562 157.216 130.221C156.442 128.882 154.949 128.439 153.436 129.036C118.858 134.137 118.858 134.137 97.2579 114.038C96.1873 112.662 94.59 112.279 93.25 113.052C91.9078 113.826 91.3906 115.429 92.1004 117.013C97.2579 147.759 92.1004 158.336 77.0104 173.126C75.737 174.136 75.321 175.681 76.0946 177.019Z" fill="url(#paint0_linear_528_2249)"/>
<path fill-rule="evenodd" clip-rule="evenodd" d="M181.36 15.7956C196.236 33.0635 197.005 59.5034 188.739 79.3727C186.205 85.462 179.212 88.3463 173.118 85.8151C167.024 83.2839 164.137 76.2956 166.67 70.2063C172.478 56.245 170.693 40.0178 163.247 31.3751C159.817 27.393 154.783 24.4395 147.186 23.9512C139.285 23.4433 128.076 25.6025 113.039 33.2825C87.7615 46.1922 66.462 66.5511 50.9407 88.561C35.3296 110.698 26.209 133.577 24.2825 150.913C23.3164 159.607 24.2634 165.928 26.1139 169.963C27.7401 173.51 30.1399 175.611 34.0581 176.562C38.5641 177.656 46.0671 177.412 57.5467 173.27C68.9003 169.174 83.2168 161.594 100.767 149.371C106.182 145.601 113.63 146.93 117.403 152.34C121.177 157.75 119.847 165.192 114.433 168.963C95.8356 181.914 79.6271 190.693 65.664 195.731C51.827 200.724 39.2219 202.392 28.4142 199.767C17.0187 197 8.89934 189.752 4.38681 179.911C0.0985231 170.559 -0.712816 159.455 0.529225 148.278C3.01891 125.874 14.1801 99.2306 31.4044 74.8057C48.7185 50.2535 72.8081 27.0103 102.161 12.0187C119.622 3.10107 135.184 -0.750095 148.72 0.119994C162.561 1.00965 173.63 6.82238 181.36 15.7956Z" fill="url(#paint1_linear_528_2249)"/>
<defs>
<linearGradient id="paint0_linear_528_2249" x1="97" y1="0" x2="97" y2="201" gradientUnits="userSpaceOnUse">
<stop stop-color="#CB63FD"/>
<stop offset="1" stop-color="#8263FD"/>
</linearGradient>
<linearGradient id="paint1_linear_528_2249" x1="97" y1="0" x2="97" y2="201" gradientUnits="userSpaceOnUse">
<stop stop-color="#CB63FD"/>
<stop offset="1" stop-color="#8263FD"/>
</linearGradient>
</defs>
</svg>

<svg xmlns="http://www.w3.org/2000/svg" width="194" height="201" fill="none"><path fill="url(#a)" d="M76.095 177.019c.775 1.342 2.321 1.754 3.863 1.208 29.773-1.208 34.194-5.101 56.178 14.998.987 1.353 2.636 1.709 3.979.935s1.805-2.349 1.179-3.91c-5.158-29.263-5.158-32.138 15.09-56.113 1.244-1.061 1.607-2.575.832-3.916-.774-1.339-2.267-1.782-3.78-1.185-34.578 5.101-34.578 5.101-56.178-14.998-1.07-1.376-2.668-1.759-4.008-.986-1.342.774-1.86 2.377-1.15 3.961 5.158 30.746 0 41.323-15.09 56.113-1.273 1.01-1.689 2.555-.915 3.893"/><path fill="url(#b)" fill-rule="evenodd" d="M181.36 15.796c14.876 17.268 15.645 43.707 7.379 63.577-2.534 6.089-9.527 8.973-15.621 6.442s-8.981-9.52-6.448-15.609c5.808-13.961 4.023-30.188-3.423-38.83-3.43-3.983-8.464-6.937-16.061-7.425-7.901-.508-19.11 1.651-34.147 9.331-25.278 12.91-46.577 33.27-62.098 55.279-15.611 22.137-24.732 45.016-26.659 62.352-.966 8.694-.019 15.015 1.832 19.05 1.626 3.547 4.026 5.648 7.944 6.599 4.506 1.094 12.01.85 23.489-3.292 11.353-4.096 25.67-11.676 43.22-23.899 5.415-3.77 12.863-2.441 16.636 2.969 3.774 5.41 2.444 12.852-2.97 16.623-18.597 12.951-34.806 21.73-48.769 26.768-13.837 4.993-26.442 6.661-37.25 4.036C17.02 197 8.9 189.752 4.387 179.911c-4.288-9.352-5.1-20.456-3.858-31.633 2.49-22.404 13.651-49.047 30.875-73.472C48.72 50.254 72.808 27.01 102.161 12.019 119.622 3.1 135.184-.751 148.72.12c13.841.89 24.91 6.702 32.64 15.676" clip-rule="evenodd"/><defs><linearGradient id="a" x1="97" x2="97" y1="0" y2="201" gradientUnits="userSpaceOnUse"><stop stop-color="#CB63FD"/><stop offset="1" stop-color="#8263FD"/></linearGradient><linearGradient id="b" x1="97" x2="97" y1="0" y2="201" gradientUnits="userSpaceOnUse"><stop stop-color="#CB63FD"/><stop offset="1" stop-color="#8263FD"/></linearGradient></defs></svg>
